X: 1
T: String Quartet in D Major opus 50 no 6 mvt 1
C: Franz Joseph Haydn
%%abc-version 2.0
%%abcx-abcm2ps-target-version 5.9.1 (29 Sep 2008)
%%abc-creator hum2abc beta
%%abcx-conversion-date 2021/02/14 14:38:33
%%abc-copyright Copyright (c) 1994, 2000 Center for Computer Assisted Research in the Humanities
%%abc-edited-by Frances Bennion
%%abcx-initial-encoding-date 1997/04/15
%%gracespace 0 6 6
%%humdrum-veritas 3952074203
%%humdrum-veritas-data 85894800
%%linebreak <none>
%%barnumbers 0
L: 1/16
M: 4/4
N: Derived from op50n6-01.krn
Q: "Allegro"
%%staves [1 2 3 4]
V: 1
V: 2
V: 3 clef=alto
V: 4 clef=bass
K: D
[V:1]e12 dcB A[I:setbarnb2]|
[V:2]z16 |
[V:3]z16 |
[V:4]z16 |
[V:1]G12 F4 |
[V:2]E12 D4 |
[V:3]A,16 |
[V:4]C,12 D,4 |
[V:1]E6 GB D4 C4 |
[V:2]B,8 A,4 A,4 |
[V:3]G,8 F,4 E,4 |
[V:4]G,,8 A,,8 |
[V:1]D16 |
[V:2]A,16 |
[V:3]F,16 |
[V:4]D,,2D,2 D,2D,2 D,,2D,2 D,,2D,2 |
[V:1]C2A2 A8 AFGE |
[V:2][C16E16] |
[V:3]G,16 |
[V:4]D,,2D,2 D,2D,2 D,,2D,2 D,,2D,2 |
[V:1]F16 |
[V:2][D16A,16] |
[V:3]F,16 |
[V:4]D,,2D,2 D,2D,2 D,,2D,2 D,,2D,2 |
[V:1]E2B2 B8 AFGE |
[V:2][C16E16] |
[V:3]G,16 |
[V:4]D,,2D,2 D,2D,2 D,,2D,2 D,,2D,2 |
[V:1]FDEF GABc defg abc'd' |
[V:2]D4 z12 |
[V:3]F,4 z12 |
[V:4]D,,4 z12 |
[V:1]b2ab a4 z8 |
[V:2]D4 >D4 D2CD D2CD |
[V:3]D,4 D,4 z8 |
[V:4]G,4 F,4 z8 |
[V:1]g2fg f4 z8 |
[V:2]D4 >D4 D2CD D2CD |
[V:3]D,4 D,4 z8 |
[V:4]B,4 A,4 z8 |
[V:1]E16- |
[V:2]D2D4 D4 D4 D2- |
[V:3]z16 |
[V:4](3:2:2G,8- G,A,2_B, =CB,A,|
[V:1]E16- |
[V:2]D2D4 D4 D4 D2- |
[V:3]z16 |
[V:4](3:2:2G,8- G,A,2_B, =CB,A,|
[V:1]E2E4 E4 E4 E2 |
[V:2]D2D4 D4 D4 D2 |
[V:3]z16 |
[V:4]G,2A,2 _B,=CB,A, G,2A,2 B,CB,A, |
[V:1]E=FEF EFEF EFEF EFEF |
[V:2]D16 |
[V:3]_B,8 =B,4 ^G,4 |
[V:4]G,8 ^G,8 |
[V:1]E4 >F4 A2G2 F2E2 |
[V:2]C4 >D4 F2E2 D2C2 |
[V:3]A,8 C,2E,2 F,2G,2 |
[V:4]A,8 A,,8 |
[V:1]D4 z12 |
[V:2]D4 z12 |
[V:3]F,4 z12 |
[V:4]D,12 C,B,,A,, G,,|
[V:1]z16 |
[V:2]a12 gfe d|
[V:3]z2D,2 F,2A,2 D2F2 G2^G2 |
[V:4]F,,4 z12 |
[V:1]e'12 d'c'b a|
[V:2]c4 z12 |
[V:3]A4 z12 |
[V:4]z2C,,2 E,,2A,,2 C,2E,2 A,2C2 |
[V:1](3:2:2g8- gf2d'2 f2|
[V:2]z2D2 F2^A2 B4 z4 |
[V:3]z16 |
[V:4]D4 z12 |
[V:1]^d2e2 z2e2 z2c'2 a2f2 |
[V:2]z2C2 E2^G2 A4 z4 |
[V:3]z16 |
[V:4]z16 |
[V:1]e2^d2 z2=d2 z2ba ^gfed |
[V:2]z2B,2 D2E2 ^G4 z4 |
[V:3]z16 |
[V:4]z16 |
[V:1](3:2:2c8- cB4 A2|
[V:2]z2E2 A2c2 F4 B4 |
[V:3]z2cB A^GFE F4 F,4 |
[V:4]z2A,^G, F,E,D,C, D,4 ^D,4 |
[V:1]^GEGB e^gbg agfe ^dcBA |
[V:2]E8 ^D8 |
[V:3]^G,8 F,8 |
[V:4]E,16- |
[V:1]^GEGB e^gbg agfe ^dcBA |
[V:2]E8 ^D8 |
[V:3]^G,8 F,8 |
[V:4]E,16 |
[V:1]^GEGA BeGA BeAB cEBc |
[V:2]E4 z12 |
[V:3]^G,4 z12 |
[V:4]E,4 z12 |
[V:1]d12 d2=c B|
[V:2]z16 |
[V:3]z16 |
[V:4]z2E,2 ^D,2E,2 =F,4 z4 |
[V:1]A8 ^G8 |
[V:2]z16 |
[V:3]D12 D2=C B,|
[V:4]z2E,2 ^D,2E,2 =F,4 z4 |
[V:1]z16 |
[V:2]d12 d2=c B|
[V:3]A,8 ^G,8 |
[V:4]z2E,,2 ^D,,2E,,2 =F,,4 z4 |
[V:1]b12 ^g2f e|
[V:2]A8 ^G8 |
[V:3]D16 |
[V:4]z2E,2 ^D,2E,2 =F,4 E,2=D,2 |
[V:1]aeac' e'2e'2 e'4 d'2c'd' |
[V:2]A4 z4 B,DE^G B2B2 |
[V:3]E4 z4 ^G,B,DE ^G2G2 |
[V:4]C,4 z4 E,,4 z4 |
[V:1]c'eac' e'2e'2 e'4 d'2c'd' |
[V:2]c4 z4 B,DE^G B2B2 |
[V:3]A4 z4 ^G,B,DE ^G2G2 |
[V:4]A,,4 z4 E,4 z4 |
[V:1]c'2c'2 b2ab a2a2 g2fg |
[V:2]c2c2 c2c2 c2c2 A2A2 |
[V:3]A2A2 ^E2E2 F2F2 C2C2 |
[V:4]A,,4 z12 |
[V:1]f2f2 e2de d2d2 c2Bc |
[V:2]A2A2 F2F2 F2F2 F2F2 |
[V:3]D2D2 C2C2 F2F2 E2E2 |
[V:4]z4 ^A,2A,2 B,2B,2 C2C2 |
[V:1]cB^AB cBdc edfe gfed |
[V:2]F4 z12 |
[V:3]D4 z12 |
[V:4]D4 z12 |
[V:1]cB^AB cBdc edfe gfed |
[V:2]F4 z12 |
[V:3]D4 z12 |
[V:4]D4 z12 |
[V:1]cB^AB f2ed d2cB d2cB |
[V:2]F4 z12 |
[V:3]D4 z12 |
[V:4]D,4 z12 |
[V:1]A8 B8 |
[V:2]EFEF E2A2 ^G2D4 D2 |
[V:3]CDCD C2C2 D2^G,4 G,2 |
[V:4]E,2E,2 E,2E,2 E,2E,2 E,2E,2 |
[V:1]A16 |
[V:2]=C16 |
[V:3]A,16 |
[V:4]=F,16 |
[V:1]_B12 AG=F E|
[V:2]E16 |
[V:3]G,16 |
[V:4]=C,16 |
[V:1]=c4 _BAG=F B4 AGFE |
[V:2]=C4 z4 [G4_B4] z4 |
[V:3]=F,4 z4 E,4 z4 |
[V:4]A,,4 z4 =C,4 z4 |
[V:1]=c4 _BAG=F a4 =f2ef |
[V:2][A4=F4] z4 [a4=c4F4] z4 |
[V:3]=F,4 z4 F,4 z4 |
[V:4]=F,,4 z4 F,,4 z4 |
[V:1]=c'4 bc'd'c' =f'4 f'4 |
[V:2][=F4a4=c4] z4 [F4a4c4] [a4c4F4] |
[V:3]=F,4 z4 [=F4A4] [A4^E4] |
[V:4]=F,,4 z4 F,,4 F,,4 |
[V:1]=f'8 ^D4 D4 |
[V:2][a4=F4=c4] z4 ^D4 D4 |
[V:3][A4=F4] z4 ^D,4 D,4 |
[V:4]=F,,4 z4 ^D,,4 D,,4 |
[V:1]^D8- D8 |
[V:2]^D4 z4 =C4 C4 |
[V:3]^D,4 z4 A,4 A,4 |
[V:4]^D,,16 |
[V:1]E^GAG A^Bc=c ^c^ded e^gag |
[V:2]C16- |
[V:3]A,16- |
[V:4]E,,16- |
[V:1]a^bc'b c'^d'e'd' e'd'e'd'2 <e'2a |
[V:2]C16 |
[V:3]A,16 |
[V:4]E,,16 |
[V:1]b16 |
[V:2]D2^G4 G4 G4 G2 |
[V:3]^G,2D4 D4 D4 D2 |
[V:4]E,,2E,,2 E,,2E,,2 E,,2E,,2 E,,2E,,2 |
[V:1]a16- |
[V:2]A4 z2a2 ^g2a2 e2=g2 |
[V:3]C4 z2F2 ^E2F2 C2=E2 |
[V:4]A,,4 A,4 z8 |
[V:1]a4 >d'4 c'2d'2 b2^g2 |
[V:2]^e2f2 z2f2 e2f2 d2B2 |
[V:3]C2D2 z8 E4 |
[V:4]D,4 D,,4 z4 E,,4 |
[V:1]b2a2 a8 a4- |
[V:2]d2c2 z2A2 ^G2A2 E2=G2 |
[V:3]E4 z2F2 ^E2F2 C2=E2 |
[V:4]A,,4 A,4 z8 |
[V:1]a4 >d4 c2d2 B2^G2 |
[V:2]^E2F2 z2F2 E2F2 D2B,2 |
[V:3]C2D2 z8 E4 |
[V:4]D,4 D,,4 z4 E,,4 |
[V:1]A2^Gz B2Az c2Bz (3d2B2G2 |
[V:2]C4 z8 D4 |
[V:3]E4 z8 ^G,3B, |
[V:4]A,,4 z8 E,,4 |
[V:1]A2^Gz B2Az c2Bz (3d2B2G2 |
[V:2]C4 z8 D4 |
[V:3]A,4 z8 ^G,3B, |
[V:4]A,,4 z8 E,,4 |
[V:1]A2^Gz B2Az c2Bz d2cz |
[V:2]C4 z12 |
[V:3]A,4 z12 |
[V:4]A,,4 z12 |
[V:1]e12 dcB A|
[V:2]z16 |
[V:3]z16 |
[V:4]z16 |
[V:1]G12 F4 |
[V:2]E12 D4 |
[V:3]C12 D4 |
[V:4]^A,,12 B,,4 |
[V:1]E6 FE D4 C4 |
[V:2]C6 DC B,4 ^A,4 |
[V:3]E4 z12 |
[V:4]E,,8 F,,8 |
[V:1]B,16 |
[V:2]B,4 z12 |
[V:3]d12 =cBA G|
[V:4]G,,2G,,2 G,,2G,,2 G,,2G,,2 G,,2G,,2 |
[V:1]=C16 |
[V:2]a12 gfe d|
[V:3]G8 F8 |
[V:4]D,2D,2 D,2D,2 D,2D,2 D,2D,2 |
[V:1]d12 d2=c B|
[V:2]=c8 B8 |
[V:3]z16 |
[V:4]G,8 =F,8 |
[V:1]A8 ^G8 |
[V:2]b12 b2a ^g|
[V:3]D8 ^E8 |
[V:4]E,8 D,8 |
[V:1]d'12 c'ba ^g|
[V:2]f8 ^e4 ^g4 |
[V:3]^G2G2 ^^F2G2 B4 z4 |
[V:4]C,16 |
[V:1]a16- |
[V:2]^g8 f8- |
[V:3]z2F2 ^E2F2 A4 z4 |
[V:4]C,12 B,,A,,^G,, F,,|
[V:1]a2a2 ^g2a2 g2a2 b2a2 |
[V:2]f2f2 ^e2f2 e2f2 ^g2f2 |
[V:3]z16 |
[V:4]D,12 C,D,E, D,|
[V:1]^g16- |
[V:2]f2f4 f4 f4 f2- |
[V:3]z16 |
[V:4](3:2:2B,8- B,C2D EDC|
[V:1]g16- |
[V:2]f2f4 f4 f4 f2- |
[V:3]d8- d2c2 B^ABc |
[V:4](3:2:2B,8- B,C2D EDC|
[V:1]g16 |
[V:2]f2f4 f4 f4 f2 |
[V:3]d2c2 B^ABc d2c2 BABc |
[V:4]B,2C2 DEDC B,2C2 DEDC |
[V:1]^g4 >>a4 gaga gaga |
[V:2]f16 |
[V:3]d8 ^d4 ^B4 |
[V:4]B,8 ^B,8 |
[V:1](3:2:2^g8- ga2b c'ba|
[V:2]^e8- e2f2 ^gagf |
[V:3]c4 z12 |
[V:4]C2C2 C2C2 C2C2 C2C2 |
[V:1](3:2:2^g8- ga2b c'ba|
[V:2]^e8- e2f2 ^gagf |
[V:3]B8- B2A2 ^GFGA |
[V:4]C2C2 C2C2 C2C2 C2C2 |
[V:1]^g4 >a4 g2a2 g2a2 |
[V:2]^e4 >f4 e2f2 e2f2 |
[V:3]B4 >^B4 c2B2 c2B2 |
[V:4]C16- |
[V:1]^g4 z12 |
[V:2]^e4 z12 |
[V:3]c4 z12 |
[V:4]C4 z12 |
[V:1]af^ef fcBc AB^GA Fcfa |
[V:2]z16 |
[V:3]c12 A2^G F|
[V:4]F,8 z8 |
[V:1]b^gfg gBAB ^GAFG ^Ecgb |
[V:2]d12 B2A ^G|
[V:3]^E16 |
[V:4]C,8 z8 |
[V:1]af^ef fcBc AB^GA Fcfa |
[V:2]A8 z8 |
[V:3]c12 A2^G F|
[V:4]F,16 |
[V:1]b^gfg gBAB ^GAFG ^Ecgb |
[V:2]d12 B2A ^G|
[V:3]^E16 |
[V:4]C,16 |
[V:1]af^ef fc^Bc afef fdcd |
[V:2]A8 a4 f2ed |
[V:3]c4 A2^GF F4 A4 |
[V:4]F,,8 F,8 |
[V:1]gafg efde cdBc ABGA |
[V:2]c8 [c8E8] |
[V:3]G12 E4 |
[V:4]E,8 A,8 |
[V:1]FDEF GABc defg abc'd' |
[V:2][F8d8] A8 |
[V:3]A8 D8- |
[V:4]D,8 F,8 |
[V:1]b2^ab g2fg e2^de =d2cd |
[V:2]B16 |
[V:3]D4 ^D4 E4 E4 |
[V:4]G,12 ^G,4 |
[V:1]cABc def^g agag agag |
[V:2]A4 z12 |
[V:3]E4 z12 |
[V:4]A,4 z12 |
[V:1]a16- |
[V:2]z16 |
[V:3]E8- E2=F2 GAGF |
[V:4](3:2:2C8- CD2E =FED|
[V:1]a16 |
[V:2]g8- g2=f2 edef |
[V:3]E8- E2=F2 GAGF |
[V:4](3:2:2C8- CD2E =FED|
[V:1]a2a4 a4 a4 a2 |
[V:2]g2=f2 edef g2f2 e2g2 |
[V:3]E2=F2 GAGF E2F2 GFGE |
[V:4]C2D2 E=FED C2D2 EDEC |
[V:1](3:2:2a8- a_b2=c' d'c'b|
[V:2]f8- f2g2 a_bag |
[V:3]_E16 |
[V:4]=C2C2 C2C2 C2C2 C2C2 |
[V:1](3:2:2a8- a_b2=c' d'c'b|
[V:2]f8- f2g2 a_bag |
[V:3]_e8- e2d2 =c_Bcd |
[V:4](3:2:2=C8- C_B,2A, G,A,B,|
[V:1]a2_b2 =c'd'c'b a2b2 c'bc'a |
[V:2]f2g2 a_bag f2g2 agaf |
[V:3]_e2d2 =c_Bcd e2d2 c2c2 |
[V:4]=C2_B,2 A,G,A,B, C2B,2 A,2D,2 |
[V:1]g12 g2=f e|
[V:2]g4 z12 |
[V:3]d12 _B4 |
[V:4](3:2:2_B,8- B,B,2A,2 G,2|
[V:1]d8 c8 |
[V:2]z2A2 ^G2A2 _B4 z4 |
[V:3]G12 G2=F E|
[V:4]A,16- |
[V:1]z2a2 ^g2a2 _b4 z4 |
[V:2]G12 G2=F E|
[V:3]D8 C8 |
[V:4]A,16- |
[V:1]z2a2 ^g2a2 _b4 =g4 |
[V:2]D8 C8 |
[V:3]G12 G2=F E|
[V:4]A,16 |
[V:1]g8 f8 |
[V:2]=c12 c2_B A|
[V:3]A2D2 C2D2 _E4 z4 |
[V:4]D,16- |
[V:1]=c'12 c'2_b a|
[V:2]G8 F8 |
[V:3]z2D2 C2D2 _E4 z4 |
[V:4]D,16 |
[V:1]g8 f8 |
[V:2]=c12 c2_B A|
[V:3]z2d2 c2d2 _e4 z4 |
[V:4][A,16-D,16] |
[V:1]=c'12 c'2_b a|
[V:2]G8 F8 |
[V:3]z2D2 C2D2 _E4 z4 |
[V:4][A,16D,16] |
[V:1]_b2b2 a2ga g2g2 f2ef |
[V:2]d16- |
[V:3]D2D2 F2EF G2G2 =C2C2 |
[V:4]G,2G,2 A,2A,2 _B,2B,2 A,2A,2 |
[V:1]g2g2 =f2ef e2e2 d2cd |
[V:2]d12 =F4 |
[V:3]D8 _B4 =B4 |
[V:4]_B,2B,2 A,2G,A, G,2G,2 ^G,2G,2 |
[V:1]c2BA aAaA c2BA aAaA |
[V:2]E4 z4 E8 |
[V:3]A4 z4 C8 |
[V:4]A,16- |
[V:1]B2AB aBaB c2Bc acac |
[V:2]F8 G8 |
[V:3]D8 E8 |
[V:4]A,16- |
[V:1]d2cd e2de f2ef g2fg |
[V:2]A4 c2Bc d2cd e2de |
[V:3]F4 z12 |
[V:4]A,16 |
[V:1]a2ga b2ab c'2bc' d'2c'd' |
[V:2]f2ef g2fg e2de f2ef |
[V:3]z8 G4 F4 |
[V:4]A,,16- |
[V:1]e'12 d'c'b a|
[V:2]g16 |
[V:3]C16 |
[V:4]A,,16 |
[V:1]g12 fed c|
[V:2]z16 |
[V:3]z16 |
[V:4]z16 |
[V:1]e12 dcB A|
[V:2]z16 |
[V:3]z16 |
[V:4]z16 |
[V:1]G12 F4 |
[V:2]E12 D4 |
[V:3]A,16 |
[V:4]C,12 D,4 |
[V:1]E6 GB D4 C4 |
[V:2]B,8 A,4 A,4 |
[V:3]G,8 F,4 E,4 |
[V:4]G,,8 A,,8 |
[V:1]D16 |
[V:2]A,16 |
[V:3]F,16 |
[V:4]D,,2D,2 D,2D,2 D,,2D,2 D,,2D,2 |
[V:1]C2A2 A8 AFGE |
[V:2][E16C16] |
[V:3]G,16 |
[V:4]D,,2D,2 D,2D,2 D,,2D,2 D,,2D,2 |
[V:1]F16 |
[V:2][A,16D16] |
[V:3]F,16 |
[V:4]D,,2D,2 D,2D,2 D,,2D,2 D,,2D,2 |
[V:1]E2B2 B8 AFGE |
[V:2][C16E16] |
[V:3]G,16 |
[V:4]D,,2D,2 D,2D,2 D,,2D,2 D,,2D,2 |
[V:1]FDEF GABc defg abc'd' |
[V:2]D4 z12 |
[V:3]F,4 z12 |
[V:4]D,,4 z12 |
[V:1]b2ab a4 z8 |
[V:2]D4 >D4 D2CD D2CD |
[V:3]D,4 D,4 z8 |
[V:4]G,4 F,4 z8 |
[V:1]g2fg f4 z8 |
[V:2]D4 >D4 D2CD D2CD |
[V:3]D,4 D,4 z8 |
[V:4]B,4 A,4 z8 |
[V:1]E16- |
[V:2]D2D4 D4 D4 D2- |
[V:3]z16 |
[V:4](3:2:2G,8- G,A,2_B, =CB,A,|
[V:1]E16- |
[V:2]D2D4 D4 D4 D2- |
[V:3]_B8- B2A2 GFGA |
[V:4](3:2:2G,8- G,A,2_B, =CB,A,|
[V:1]E2E4 E4 E4 E2 |
[V:2]D2D4 D4 D4 D2 |
[V:3]_B2A2 GFGA B2A2 GFGA |
[V:4]G,2A,2 _B,=CB,A, G,2A,2 B,CB,A, |
[V:1]E=FEF EFEF EFEF EFEF |
[V:2]D16 |
[V:3]_B8 =B8 |
[V:4]G,8 ^G,8 |
[V:1]EA,CE AEAc eAce aecA |
[V:2]C4 A8 A4 |
[V:3]A4 [E8C8] [E4C4] |
[V:4]A,2A,,2 A,,2A,,2 A,,2A,,2 A,,2A,,2 |
[V:1]^GEGB dBd^g bagf edcB |
[V:2]^G16 |
[V:3][D16B,16] |
[V:4]A,,2A,,2 A,,2A,,2 A,,2A,,2 A,,2A,,2 |
[V:1]cAce aeac' e'2c'2 a2g2 |
[V:2]G12 E4 |
[V:3][E16C16] |
[V:4]A,,2A,,2 A,,2A,,2 A,,2A,,2 A,,2A,,2 |
[V:1]fDEF GABc defg abc'd' |
[V:2]F4 z12 |
[V:3][F4A,4] z12 |
[V:4]D,4 z12 |
[V:1]c'16 |
[V:2]CDEF GABA GFED CB,A,G |
[V:3]A,B,CD EFGF EDCB, A,G,F,E, |
[V:4]A,,16 |
[V:1]d'DEF GABc defg abc'd' |
[V:2]F4 z12 |
[V:3]D,4 z12 |
[V:4]D,4 z8 F,4 |
[V:1]b2^ab =a2^ga =g2fg f2ef |
[V:2]D8 c4 d4 |
[V:3]z4 F4 A4 A2GA |
[V:4]G,2G,2 F,2F,2 E,2E,2 D,2D,2 |
[V:1]fe^de fegf agba =c'bag |
[V:2]B4 z12 |
[V:3]B4 z12 |
[V:4]G,4 z12 |
[V:1]fe^de fegf agba =c'bag |
[V:2]B4 z12 |
[V:3]G4 z12 |
[V:4]G,4 z12 |
[V:1]fe^de b2ag g2fe g2fe |
[V:2]B4 z12 |
[V:3]G4 z12 |
[V:4]G,4 z12 |
[V:1]d8 e8 |
[V:2]ABAB A2d2 c2G4 G2 |
[V:3]FGFG F2F2 G2C4 C2 |
[V:4]A,2A,2 A,2A,2 A,,2A,,2 A,,2A,,2 |
[V:1]d16 |
[V:2]=F16 |
[V:3]D16 |
[V:4]_B,,16 |
[V:1]_e12 d=c_B A|
[V:2]A16 |
[V:3]=C16 |
[V:4]=F,,16 |
[V:1]=f4 _ed=c_B e4 dcBA |
[V:2]=F4 z4 [_E4=c4] z4 |
[V:3]_B,4 z4 A,4 z4 |
[V:4]D,,4 z4 =F,,4 z4 |
[V:1]=f4 _ed=c_B _b4 ab=c'b |
[V:2][D4_B4] z4 [=F4d4] z4 |
[V:3]_B,4 z4 B,4 z4 |
[V:4]_B,,4 z4 B,,4 z4 |
[V:1]d'4 c'd'_e'd' =f'2d'2 _b2=f2 |
[V:2][d4=F4] z4 [F4d4] [d4F4] |
[V:3]_B,4 z4 B,4 B,4 |
[V:4]_B,,4 z4 B,,4 B,,4 |
[V:1]d2_B2 =F2D2 _B,4 A,4 |
[V:2][d2=F2]_B2 F2D2 _B,4 A,4 |
[V:3]_B,2_B2 =F2D2 B,4 A,4 |
[V:4]_B,,2_B,2 =F,2D,2 B,,4 A,,4 |
[V:1]^G,16 |
[V:2]^G,8 =F4 F4 |
[V:3]^G,8 D4 D4 |
[V:4]^G,,16 |
[V:1]A,CDC D^EFE F^GAG Acdc |
[V:2]F16- |
[V:3]D16- |
[V:4]A,,16- |
[V:1]d^efe f^gag ac'd'c' d'afd |
[V:2]F16 |
[V:3]D16 |
[V:4]A,,16 |
[V:1]e16 |
[V:2]G2c4 c4 c4 c2 |
[V:3]C2G4 G4 G4 G2 |
[V:4]A,,2A,,2 A,,2A,,2 A,,2A,,2 A,,2A,,2 |
[V:1]d16- |
[V:2]d4 z2d2 c2d2 A2=c2 |
[V:3]F4 z2B2 ^A2B2 F2=A2 |
[V:4]D,4 D4 z8 |
[V:1]d4 >g4 f2g2 e2c2 |
[V:2]^A2B2 z2B2 A2B2 G2E2 |
[V:3]F2G2 z8 A,4 |
[V:4]G,4 G,,4 z4 A,,4 |
[V:1]e2d2 d8 d4- |
[V:2]G2F2 z2d2 c2d2 A2=c2 |
[V:3]A,4 z2B2 ^A2B2 F2=A2 |
[V:4]D,4 D4 z8 |
[V:1]d4 >g4 f2g2 e2c2 |
[V:2]^A2B2 z2B2 A2B2 G2E2 |
[V:3]F2G2 z8 A,4 |
[V:4]G,4 G,,4 z4 A,,4 |
[V:1]d2cz e2dz f2ez (3g2e2c2 |
[V:2]F4 z8 G4 |
[V:3]A,4 z8 C3E |
[V:4]D,4 z8 A,,4 |
[V:1]d2cz e2dz f2ez (3g2e2c2 |
[V:2]F4 z8 G3E |
[V:3]D4 z8 C3E |
[V:4]D,4 z8 A,,4 |
[V:1](3a2f2d2 (3b2g2d2 (3a2f2d2 (3b2g2d2 |
[V:2]D16- |
[V:3]D4 D,4 D,4 D,4 |
[V:4](3F,,2A,,2D,2 (3G,,2B,,2D,2 (3F,,2A,,2D,2 (3G,,2B,,2D,2 |
[V:1](3a2f2d2 (3b2g2e2 (3a2f2d2 (3g2e2c2 |
[V:2]D12 C3 E|
[V:3]D,8 z8 |
[V:4](3F,,2A,,2D,2 (3G,,2B,,2E,2 (3A,,2D,2F,2 (3A,,2E,2G,2 |
[V:1]d16- |
[V:2]F2F2 E2F2 G4 G4 |
[V:3]z8 z2D2 C2D2 |
[V:4]B,,16 |
[V:1]d16- |
[V:2]z2G2 F2G2 ^G4 G4 |
[V:3]D,4 z4 >=F4 E2F2 |
[V:4]_B,,16 |
[V:1]d16 |
[V:2]z2A2 ^G2A2 B2A2 =G2F2 |
[V:3]F2F2 ^E2F2 G2F2 =E2D2 |
[V:4]A,,16 |
[V:1]E16 |
[V:2]G16 |
[V:3]C16 |
[V:4]z2A,,2 ^G,,2A,,2 _B,,4 A,,4 |
[V:1](3:2:2D8- DC2_B2 C2|
[V:2]F2A,2 ^G,2A,2 _B,8 |
[V:3]D2F,2 ^E,2F,2 G,8- |
[V:4]D,,16- |
[V:1](3:2:2D8- DC2_B2 C2|
[V:2]A,2A,2 ^G,2A,2 _B,8 |
[V:3]F,2F,2 ^E,2F,2 G,8 |
[V:4]D,,16- |
[V:1]D4 z4 D4 D4 |
[V:2]A,4 z4 A,4 A,4 |
[V:3]F,4 z4 F,4 F,4 |
[V:4]D,,4 z4 D,,4 D,,4 |
[V:1]D4 z12 |]
[V:2]A,4 z12 |]
[V:3]F,4 z12 |]
[V:4]D,,4 z12 |]

